src/icons/svg/BlockedNaught.svg

<svg width="24" height="24" viewBox="0 0 24 24" fill="none" xmlns="http://www.w3.org/2000/svg">
<path d="M12 0.48C5.63798 0.48 0.47998 5.638 0.47998 12C0.47998 18.362 5.63798 23.52 12 23.52C18.364 23.52 23.52 18.362 23.52 12C23.52 5.638 18.364 0.48 12 0.48V0.48ZM18.2 5.804L18.198 5.802C18.198 5.803 18.2 5.804 18.2 5.804ZM3.23598 12C3.23598 7.159 7.15998 3.236 12 3.236C14.105 3.236 16.036 3.978 17.549 5.214L5.21398 17.548C3.97598 16.037 3.23598 14.106 3.23598 12.002V12ZM5.79998 18.197L5.80198 18.199C5.80098 18.197 5.80098 18.197 5.79998 18.197ZM12 20.766C9.89498 20.766 7.96398 20.024 6.45398 18.787L18.786 6.453C20.023 7.963 20.766 9.895 20.766 11.999C20.768 16.84 16.841 20.765 12.001 20.765L12 20.766Z" fill="#1C2125"/>
</svg>

<!-- Generated by IcoMoon.io -->
<svg version="1.1" xmlns="http://www.w3.org/2000/svg" width="24" height="24" viewBox="0 0 24 24">
<title>blocked-naught</title>
<path fill="#444" d="M12 0.48c-6.362 0-11.52 5.158-11.52 11.52s5.158 11.52 11.52 11.52c6.364 0 11.52-5.158 11.52-11.52s-5.156-11.52-11.52-11.52zM18.2 5.804l-0.002-0.002c0 0.001 0.002 0.002 0.002 0.002zM3.236 12c0-4.841 3.924-8.764 8.764-8.764 2.105 0 4.036 0.742 5.549 1.978l-12.335 12.334c-1.238-1.511-1.978-3.442-1.978-5.546zM5.8 18.197l0.002 0.002c-0.001-0.002-0.001-0.002-0.002-0.002zM12 20.766c-2.105 0-4.036-0.742-5.546-1.979l12.332-12.334c1.237 1.51 1.98 3.442 1.98 5.546 0.002 4.841-3.925 8.766-8.765 8.766z"></path>
</svg>
